nes/_inc/system.svg

<svg xmlns="http://www.w3.org/2000/svg"><g fill="#fff"><path d="m489.881 124.271h-379.502c-34.261 0-62.14-27.875-62.14-62.137s27.881-62.134 62.14-62.134h379.498c34.266 0 62.141 27.873 62.141 62.136-.002 34.26-27.873 62.135-62.137 62.135zm-379.502-109.572c-26.157 0-47.441 21.28-47.441 47.44 0 26.155 21.282 47.439 47.441 47.439h379.498c26.154 0 47.442-21.282 47.442-47.439 0-26.159-21.285-47.44-47.442-47.44z"/><path d="m159.119 90.951v-57.354h-17.249v40.103l-25.441-40.103h-18.542v57.354h17.249v-41.397l26.732 41.397z"/><path d="m187.149 90.951v-38.81h-17.247v38.81z"/><path d="m187.149 43.946v-10.349h-17.247v10.349z"/><path d="m247.519 90.951v-26.739c0-5.606-10.781-13.367-16.385-13.367h-5.177c-3.879 0-8.193 3.45-12.074 5.175v-3.879h-17.249v38.81h17.249v-26.739c0-2.588 6.036-5.606 8.626-5.606 2.587 0 7.329 3.018 7.329 5.606v26.737h17.681z"/><path d="m391.841 92.286v-26.736c0-5.607-10.776-13.366-16.391-13.366h-5.171c-3.883 0-8.196 3.45-12.08 5.173v-3.879h-17.245v38.81h17.245v-26.738c0-2.585 6.04-5.607 8.628-5.607 2.586 0 7.327 3.022 7.327 5.607v26.736z"/><path d="m275.549 90.951v-38.81h9.056v-5.175h-9.056v-8.193h-17.676v8.193h-9.057v5.175h9.057v38.81z"/><path d="m308.752 50.847c-13.798 0-25.44 9.486-25.44 21.129 0 12.076 11.642 21.561 25.44 21.561 12.075 0 21.994-6.899 24.581-15.955h-17.677v5.175c0 4.313-3.015 5.61-6.897 5.61-3.881 0-6.47-1.295-6.47-5.61v-10.779h31.914c-.005-11.643-11.217-21.131-25.451-21.131zm0 3.88c3.882 0 6.9 2.588 6.9 6.901v3.878h-13.367v-3.878c0-4.313 2.588-6.901 6.467-6.901z"/><path d="m478.662 50.847c-14.233 0-25.446 9.486-25.446 21.129 0 12.076 11.208 21.561 25.446 21.561 13.792 0 25.439-9.485 25.439-21.561-.007-11.641-11.647-21.129-25.439-21.129zm0 3.88c3.874 0 6.467 2.588 6.467 6.901v21.128c0 4.311-2.593 5.607-6.467 5.607-4.311 0-6.904-1.295-6.904-5.607v-21.128c-.003-4.313 2.588-6.901 6.904-6.901z"/><path d="m429.066 33.597v21.13s-5.179-3.88-12.079-3.88c-10.779 0-19.833 9.486-19.833 19.836 0 10.782 9.057 21.563 19.833 21.563 6.9 0 12.079-2.588 12.079-2.588v1.291h17.25v-57.352zm-6.47 23.718c3.879 0 6.47 3.02 6.47 6.9v15.955c0 3.882-2.591 5.175-6.47 5.175-4.309 0-6.9-1.291-6.9-5.175v-15.955c0-3.88 2.591-6.9 6.9-6.9z"/><path d="m91.418 175.035v-25.013c0-4.741-4.743-9.488-9.486-9.488h-36.222v34.501h11.213v-23.282c0-1.727 1.291-3.452 3.018-3.452h17.246c1.727 0 3.452 1.727 3.452 3.452v23.282z"/><path d="m390.652 175.035v-25.013c0-4.741-4.742-9.488-9.483-9.488h-36.224v34.501h11.208v-23.282c0-1.727 1.298-3.452 3.022-3.452h17.249c1.727 0 3.445 1.727 3.445 3.452v23.282z"/><path d="m554.445 175.035v-25.013c0-4.741-4.741-9.488-9.488-9.488h-36.222v34.501h11.208v-23.282c0-1.727 1.291-3.452 3.023-3.452h17.244c1.727 0 3.449 1.727 3.449 3.452v23.282z"/><path d="m456.663 175.035v-25.013c0-4.741-4.742-9.488-9.488-9.488h-48.728v34.501h11.213v-23.282c0-1.727 1.289-3.452 3.014-3.452h6.47c1.295 0 3.02 1.727 3.02 3.452v23.282h11.215v-23.282c0-1.727 1.289-3.452 3.015-3.452h6.47c1.293 0 3.018 1.727 3.018 3.452v23.282z"/><path d="m37.949 175.035h-28.461c-4.741 0-9.488-3.017-9.488-7.758v-27.164h37.947v8.193h-25.443c-1.291 0-3.018 1.295-3.018 3.02 0 1.727 1.727 3.02 3.018 3.02h23.718v6.898h-23.718c-1.291 0-3.018 1.727-3.018 3.02 0 1.727 1.727 3.449 3.018 3.449h25.443z"/><path d="m178.118 175.47h-28.462c-4.742 0-9.489-3.018-9.489-7.757v-27.17h37.951v8.194h-25.446c-1.29 0-3.016 1.294-3.016 3.023s1.726 3.018 3.016 3.018h23.717v6.897h-23.717c-1.29 0-3.016 1.727-3.016 3.023 0 1.727 1.726 3.447 3.016 3.447h25.446z"/><path d="m502.551 175.035h-28.464c-4.742 0-9.492-3.018-9.492-7.758v-27.164h37.952v8.193h-25.442c-1.292 0-3.024 1.295-3.024 3.02 0 1.727 1.727 3.02 3.024 3.02h23.712v6.898h-23.712c-1.292 0-3.024 1.727-3.024 3.02 0 1.727 1.727 3.449 3.024 3.449h25.442v7.327h.004z"/><path d="m96.163 140.54v7.761h11.21c3.02 0 3.02 0 3.02 3.452v23.282h10.779v-23.282c0-3.452 0-3.452 3.45-3.452h10.779v-7.761z"/><path d="m233.184 140.54v7.761h11.21c3.016 0 3.016 0 3.016 3.452v23.282h10.781v-23.282c0-3.452 0-3.452 3.452-3.452h10.781v-7.761z"/><path d="m560.763 140.54v7.761h11.21c3.022 0 3.022 0 3.022 3.452v23.282h10.777v-23.282c0-3.452 0-3.452 3.449-3.452h10.779v-7.761z"/><path d="m185.856 140.54v34.5h11.212v-6.033c0-1.726 1.293-3.455 3.018-3.455h14.231c1.727 0 3.018 1.727 3.018 3.455v6.033h9.488v-9.488c0-1.289-1.291-3.015-1.291-4.741 0-1.29 3.018-4.308 3.018-7.756v-3.022c0-3.022-4.743-9.49-7.761-9.49zm14.23 7.761h14.231c1.727 0 3.016 1.727 3.016 3.452v3.016c0 1.727-1.291 3.022-3.016 3.022h-14.231c-1.725 0-3.018-1.293-3.018-3.022v-3.016c.002-1.722 1.293-3.452 3.018-3.452z"/><path d="m285.038 140.54c-3.02 0-7.76 6.468-7.76 9.491v25.009h11.208v-9.488h20.266v9.488h11.209v-25.009c0-3.023-4.741-9.491-8.193-9.491zm6.468 7.761h14.228c1.289 0 3.018 1.727 3.018 3.452v6.036h-20.266v-6.036c0-1.722 1.295-3.452 3.02-3.452z"/><path d="m338.507 175.035v-34.499h-10.777v34.501h10.777z"/><path d="m442.495 222.29v-25.012c0-4.742-4.743-9.488-9.492-9.488h-48.724v34.5h11.208v-23.285c0-1.727 1.291-3.452 3.016-3.452h6.468c1.295 0 3.024 1.726 3.024 3.452v23.281h11.207v-23.281c0-1.727 1.29-3.452 3.015-3.452h6.47c1.293 0 3.025 1.726 3.025 3.452v23.281h10.779z"/><path d="m376.558 222.29h-28.462c-4.742 0-9.485-3.022-9.485-7.758v-27.169h37.944v8.195h-25.44c-1.291 0-3.019 1.293-3.019 3.018 0 1.727 1.727 3.02 3.019 3.02h23.715v6.898h-23.715c-1.291 0-3.019 1.727-3.019 3.022 0 1.727 1.727 3.447 3.019 3.447h25.44z"/><path d="m294.603 187.79v7.757h11.21c3.018 0 3.018 0 3.018 3.452v23.282h10.779v-23.282c0-3.452 0-3.452 3.456-3.452h10.775v-7.757z"/><path d="m166.885 187.971c-3.019 0-9.488 4.745-9.488 7.758v4.747c0 3.019 6.469 7.761 9.488 7.761h18.973c1.725 0 3.45 1.727 3.45 3.018 0 1.723-1.727 3.447-3.45 3.447h-28.461v7.759h31.91c3.019 0 9.055-4.741 9.055-7.759v-4.742c0-3.452-6.036-8.195-9.055-8.195h-18.973c-1.727 0-3.449-1.293-3.449-3.022 0-1.725 1.724-3.021 3.449-3.021h28.028v-7.756h-31.477z"/><path d="m258.231 187.971c-3.021 0-9.489 4.745-9.489 7.758v4.747c0 3.019 6.468 7.761 9.489 7.761h18.973c1.725 0 3.45 1.727 3.45 3.018 0 1.723-1.727 3.447-3.45 3.447h-28.462v7.759h31.91c3.02 0 9.056-4.741 9.056-7.759v-4.742c0-3.452-6.036-8.195-9.056-8.195h-18.974c-1.725 0-3.448-1.293-3.448-3.022 0-1.725 1.725-3.021 3.448-3.021h28.03v-7.756h-31.477z"/><path d="m201.813 187.971v15.53c0 3.016 4.741 7.759 7.761 7.759h7.758v11.208h11.213v-11.208h7.761c3.016 0 7.761-4.743 7.761-7.759v-15.53h-10.781v12.51c0 1.291-1.725 3.02-3.45 3.02h-13.797c-1.727 0-3.451-1.727-3.451-3.02v-12.51z"/></g></svg>

<?xml version="1.0" encoding="utf-8"?>
<svg version="1.1" xmlns="http://www.w3.org/2000/svg">
  <g>
    <path fill="#FF0000" d="M 489.881 124.271 L 110.379 124.271 C 76.118 124.271 48.239 96.396 48.239 62.134 C 48.239 27.872 76.12 0 110.379 0 L 489.877 0 C 524.143 0 552.018 27.873 552.018 62.136 C 552.016 96.396 524.145 124.271 489.881 124.271 Z M 110.379 14.699 C 84.222 14.699 62.938 35.979 62.938 62.139 C 62.938 88.294 84.22 109.578 110.379 109.578 L 489.877 109.578 C 516.031 109.578 537.319 88.296 537.319 62.139 C 537.319 35.98 516.034 14.699 489.877 14.699 L 110.379 14.699 Z" id="path5" style="fill:#ffffff;fill-opacity:1"/>
    <path fill="#FF0000" d="M 159.119 90.951 L 159.119 33.597 L 141.87 33.597 L 141.87 73.7 L 116.429 33.597 L 97.887 33.597 L 97.887 90.951 L 115.136 90.951 L 115.136 49.554 L 141.868 90.951 L 159.119 90.951 Z" id="path7" style="fill:#ffffff;fill-opacity:1"/>
    <path fill="#FF0000" d="M 187.149 90.951 L 187.149 52.141 L 169.902 52.141 L 169.902 90.951 L 187.149 90.951 Z" id="path9" style="fill:#ffffff;fill-opacity:1"/>
    <path fill="#FF0000" d="M 187.149 43.946 L 187.149 33.597 L 169.902 33.597 L 169.902 43.946 L 187.149 43.946 Z" id="path11" style="fill:#ffffff;fill-opacity:1"/>
    <path id="_x33_162" fill="#FF0000" d="M 247.519 90.951 L 247.519 64.212 C 247.519 58.606 236.738 50.845 231.134 50.845 L 225.957 50.845 C 222.078 50.845 217.764 54.295 213.883 56.02 L 213.883 52.141 L 196.634 52.141 L 196.634 90.951 L 213.883 90.951 L 213.883 64.212 C 213.883 61.624 219.919 58.606 222.509 58.606 C 225.096 58.606 229.838 61.624 229.838 64.212 L 229.838 90.949 L 247.519 90.949 Z" style="fill:#ffffff;fill-opacity:1"/>
    <path id="_x33_162_1_" fill="#FF0000" d="M 391.841 92.286 L 391.841 65.55 C 391.841 59.943 381.065 52.184 375.45 52.184 L 370.279 52.184 C 366.396 52.184 362.083 55.634 358.199 57.357 L 358.199 53.478 L 340.954 53.478 L 340.954 92.288 L 358.199 92.288 L 358.199 65.55 C 358.199 62.965 364.239 59.943 366.827 59.943 C 369.413 59.943 374.154 62.965 374.154 65.55 L 374.154 92.286 L 391.841 92.286 Z" style="fill:#ffffff;fill-opacity:1"/>
    <path fill="#FF0000" d="M 275.549 90.951 L 275.549 52.141 L 284.605 52.141 L 284.605 46.966 L 275.549 46.966 L 275.549 38.773 L 257.873 38.773 L 257.873 46.966 L 248.816 46.966 L 248.816 52.141 L 257.873 52.141 L 257.873 90.951 L 275.549 90.951 Z" id="path15" style="fill:#ffffff;fill-opacity:1"/>
    <path fill="#FF0000" d="M 308.752 50.847 C 294.954 50.847 283.312 60.333 283.312 71.976 C 283.312 84.052 294.954 93.537 308.752 93.537 C 320.827 93.537 330.746 86.638 333.333 77.582 L 315.656 77.582 L 315.656 82.757 C 315.656 87.07 312.641 88.367 308.759 88.367 C 304.878 88.367 302.289 87.072 302.289 82.757 L 302.289 71.978 L 334.203 71.978 C 334.198 60.335 322.986 50.847 308.752 50.847 Z M 308.752 54.727 C 312.634 54.727 315.652 57.315 315.652 61.628 L 315.652 65.506 L 302.285 65.506 L 302.285 61.628 C 302.285 57.315 304.873 54.727 308.752 54.727 Z" id="path17" style="fill:#ffffff;fill-opacity:1"/>
    <path fill="#FF0000" d="M 478.662 50.847 C 464.429 50.847 453.216 60.333 453.216 71.976 C 453.216 84.052 464.424 93.537 478.662 93.537 C 492.454 93.537 504.101 84.052 504.101 71.976 C 504.094 60.335 492.454 50.847 478.662 50.847 Z M 478.662 54.727 C 482.536 54.727 485.129 57.315 485.129 61.628 L 485.129 82.756 C 485.129 87.067 482.536 88.363 478.662 88.363 C 474.351 88.363 471.758 87.068 471.758 82.756 L 471.758 61.628 C 471.755 57.315 474.346 54.727 478.662 54.727 Z" id="path19" style="fill:#ffffff;fill-opacity:1"/>
    <path fill="#FF0000" d="M 429.066 33.597 L 429.066 54.727 C 429.066 54.727 423.887 50.847 416.987 50.847 C 406.208 50.847 397.154 60.333 397.154 70.683 C 397.154 81.465 406.211 92.246 416.987 92.246 C 423.887 92.246 429.066 89.658 429.066 89.658 L 429.066 90.949 L 446.316 90.949 L 446.316 33.597 L 429.066 33.597 Z M 422.596 57.315 C 426.475 57.315 429.066 60.335 429.066 64.215 L 429.066 80.17 C 429.066 84.052 426.475 85.345 422.596 85.345 C 418.287 85.345 415.696 84.054 415.696 80.17 L 415.696 64.215 C 415.696 60.335 418.287 57.315 422.596 57.315 Z" id="path21" style="fill:#ffffff;fill-opacity:1"/>
    <path id="_x32_399" d="M 91.418 175.035 L 91.418 150.022 C 91.418 145.281 86.675 140.534 81.932 140.534 L 45.71 140.534 L 45.71 175.035 L 56.923 175.035 L 56.923 151.753 C 56.923 150.026 58.214 148.301 59.941 148.301 L 77.187 148.301 C 78.914 148.301 80.639 150.028 80.639 151.753 L 80.639 175.035 L 91.418 175.035 Z" style="fill:#ffffff;fill-opacity:1"/>
    <path id="_x32_399_1_" d="M 390.652 175.035 L 390.652 150.022 C 390.652 145.281 385.91 140.534 381.169 140.534 L 344.945 140.534 L 344.945 175.035 L 356.153 175.035 L 356.153 151.753 C 356.153 150.026 357.451 148.301 359.175 148.301 L 376.424 148.301 C 378.151 148.301 379.869 150.028 379.869 151.753 L 379.869 175.035 L 390.652 175.035 Z" style="fill:#ffffff;fill-opacity:1"/>
    <path id="_x32_399_2_" d="M 554.445 175.035 L 554.445 150.022 C 554.445 145.281 549.704 140.534 544.957 140.534 L 508.735 140.534 L 508.735 175.035 L 519.943 175.035 L 519.943 151.753 C 519.943 150.026 521.234 148.301 522.966 148.301 L 540.21 148.301 C 541.937 148.301 543.659 150.028 543.659 151.753 L 543.659 175.035 L 554.445 175.035 Z" style="fill:#ffffff;fill-opacity:1"/>
    <path id="_x33_177" d="M 456.663 175.035 L 456.663 150.022 C 456.663 145.281 451.921 140.534 447.175 140.534 L 398.447 140.534 L 398.447 175.035 L 409.66 175.035 L 409.66 151.753 C 409.66 150.026 410.949 148.301 412.674 148.301 L 419.144 148.301 C 420.439 148.301 422.164 150.028 422.164 151.753 L 422.164 175.035 L 433.379 175.035 L 433.379 151.753 C 433.379 150.026 434.668 148.301 436.394 148.301 L 442.864 148.301 C 444.157 148.301 445.882 150.028 445.882 151.753 L 445.882 175.035 L 456.663 175.035 Z" style="fill:#ffffff;fill-opacity:1"/>
    <path id="_x33_181" d="M 37.949 175.035 L 9.488 175.035 C 4.747 175.035 0 172.018 0 167.277 L 0 140.113 L 37.947 140.113 L 37.947 148.306 L 12.504 148.306 C 11.213 148.306 9.486 149.601 9.486 151.326 C 9.486 153.053 11.213 154.346 12.504 154.346 L 36.222 154.346 L 36.222 161.244 L 12.504 161.244 C 11.213 161.244 9.486 162.971 9.486 164.264 C 9.486 165.991 11.213 167.713 12.504 167.713 L 37.947 167.713 L 37.949 175.035 L 37.949 175.035 Z" style="fill:#ffffff;fill-opacity:1"/>
    <path id="_x33_181_1_" d="M 178.118 175.47 L 149.656 175.47 C 144.914 175.47 140.167 172.452 140.167 167.713 L 140.167 140.543 L 178.118 140.543 L 178.118 148.737 L 152.672 148.737 C 151.382 148.737 149.656 150.031 149.656 151.76 C 149.656 153.489 151.382 154.778 152.672 154.778 L 176.389 154.778 L 176.389 161.675 L 152.672 161.675 C 151.382 161.675 149.656 163.402 149.656 164.698 C 149.656 166.425 151.382 168.145 152.672 168.145 L 178.118 168.145 L 178.118 175.47 L 178.118 175.47 Z" style="fill:#ffffff;fill-opacity:1"/>
    <path id="_x33_181_2_" d="M 502.551 175.035 L 474.087 175.035 C 469.345 175.035 464.595 172.017 464.595 167.277 L 464.595 140.113 L 502.547 140.113 L 502.547 148.306 L 477.105 148.306 C 475.813 148.306 474.081 149.601 474.081 151.326 C 474.081 153.053 475.808 154.346 477.105 154.346 L 500.817 154.346 L 500.817 161.244 L 477.105 161.244 C 475.813 161.244 474.081 162.971 474.081 164.264 C 474.081 165.991 475.808 167.713 477.105 167.713 L 502.547 167.713 L 502.547 175.04 L 502.551 175.04 L 502.551 175.035 Z" style="fill:#ffffff;fill-opacity:1"/>
    <path id="_x32_391" d="M 96.163 140.54 L 96.163 148.301 L 107.373 148.301 C 110.393 148.301 110.393 148.301 110.393 151.753 L 110.393 175.035 L 121.172 175.035 L 121.172 151.753 C 121.172 148.301 121.172 148.301 124.622 148.301 L 135.401 148.301 L 135.401 140.54 L 96.163 140.54 Z" style="fill:#ffffff;fill-opacity:1"/>
    <path id="_x32_391_1_" d="M 233.184 140.54 L 233.184 148.301 L 244.394 148.301 C 247.41 148.301 247.41 148.301 247.41 151.753 L 247.41 175.035 L 258.191 175.035 L 258.191 151.753 C 258.191 148.301 258.191 148.301 261.643 148.301 L 272.424 148.301 L 272.424 140.54 L 233.184 140.54 Z" style="fill:#ffffff;fill-opacity:1"/>
    <path id="_x32_391_2_" d="M 560.763 140.54 L 560.763 148.301 L 571.973 148.301 C 574.995 148.301 574.995 148.301 574.995 151.753 L 574.995 175.035 L 585.772 175.035 L 585.772 151.753 C 585.772 148.301 585.772 148.301 589.221 148.301 L 600 148.301 L 600 140.54 L 560.763 140.54 Z" style="fill:#ffffff;fill-opacity:1"/>
    <path d="M 185.856 140.54 L 185.856 175.04 L 197.068 175.04 L 197.068 169.007 C 197.068 167.281 198.361 165.552 200.086 165.552 L 214.317 165.552 C 216.044 165.552 217.335 167.279 217.335 169.007 L 217.335 175.04 L 226.823 175.04 L 226.823 165.552 C 226.823 164.263 225.532 162.537 225.532 160.811 C 225.532 159.521 228.55 156.503 228.55 153.055 L 228.55 150.033 C 228.55 147.011 223.807 140.543 220.789 140.543 L 185.856 140.54 L 185.856 140.54 Z M 200.086 148.301 L 214.317 148.301 C 216.044 148.301 217.333 150.028 217.333 151.753 L 217.333 154.769 C 217.333 156.496 216.042 157.791 214.317 157.791 L 200.086 157.791 C 198.361 157.791 197.068 156.498 197.068 154.769 L 197.068 151.753 C 197.07 150.031 198.361 148.301 200.086 148.301 Z" id="path37" style="fill:#ffffff;fill-opacity:1"/>
    <path d="M 285.038 140.54 C 282.018 140.54 277.278 147.008 277.278 150.031 L 277.278 175.04 L 288.486 175.04 L 288.486 165.552 L 308.752 165.552 L 308.752 175.04 L 319.961 175.04 L 319.961 150.031 C 319.961 147.008 315.22 140.54 311.768 140.54 L 285.038 140.54 Z M 291.506 148.301 L 305.734 148.301 C 307.023 148.301 308.752 150.028 308.752 151.753 L 308.752 157.789 L 288.486 157.789 L 288.486 151.753 C 288.486 150.031 289.781 148.301 291.506 148.301 Z" id="path39" style="fill:#ffffff;fill-opacity:1"/>
    <path d="M 338.507 175.035 L 338.507 140.536 L 327.73 140.536 L 327.73 175.037 L 338.507 175.037 Z" id="path41" style="fill:#ffffff;fill-opacity:1"/>
    <path id="_x33_177_1_" d="M 442.495 222.29 L 442.495 197.278 C 442.495 192.536 437.752 187.79 433.003 187.79 L 384.279 187.79 L 384.279 222.29 L 395.487 222.29 L 395.487 199.005 C 395.487 197.278 396.778 195.553 398.503 195.553 L 404.971 195.553 C 406.266 195.553 407.995 197.279 407.995 199.005 L 407.995 222.286 L 419.202 222.286 L 419.202 199.005 C 419.202 197.278 420.492 195.553 422.217 195.553 L 428.687 195.553 C 429.98 195.553 431.712 197.279 431.712 199.005 L 431.712 222.286 L 442.491 222.286 L 442.495 222.29 L 442.495 222.29 Z" style="fill:#ffffff;fill-opacity:1"/>
    <path id="_x33_181_3_" d="M 376.558 222.29 L 348.096 222.29 C 343.354 222.29 338.611 219.268 338.611 214.532 L 338.611 187.363 L 376.555 187.363 L 376.555 195.558 L 351.115 195.558 C 349.824 195.558 348.096 196.851 348.096 198.576 C 348.096 200.303 349.823 201.596 351.115 201.596 L 374.83 201.596 L 374.83 208.494 L 351.115 208.494 C 349.824 208.494 348.096 210.221 348.096 211.516 C 348.096 213.243 349.823 214.963 351.115 214.963 L 376.555 214.963 L 376.558 222.29 L 376.558 222.29 Z" style="fill:#ffffff;fill-opacity:1"/>
    <path id="_x32_391_3_" d="M 294.603 187.79 L 294.603 195.547 L 305.813 195.547 C 308.831 195.547 308.831 195.547 308.831 198.999 L 308.831 222.281 L 319.61 222.281 L 319.61 198.999 C 319.61 195.547 319.61 195.547 323.066 195.547 L 333.841 195.547 L 333.841 187.79 L 294.603 187.79 Z" style="fill:#ffffff;fill-opacity:1"/>
    <path id="_x33_187" d="M 166.885 187.971 C 163.866 187.971 157.397 192.716 157.397 195.729 L 157.397 200.476 C 157.397 203.495 163.866 208.237 166.885 208.237 L 185.858 208.237 C 187.583 208.237 189.308 209.964 189.308 211.255 C 189.308 212.978 187.581 214.702 185.858 214.702 L 157.397 214.702 L 157.397 222.461 L 189.307 222.461 C 192.326 222.461 198.362 217.72 198.362 214.702 L 198.362 209.96 C 198.362 206.508 192.326 201.765 189.307 201.765 L 170.334 201.765 C 168.607 201.765 166.885 200.472 166.885 198.743 C 166.885 197.018 168.609 195.722 170.334 195.722 L 198.362 195.722 L 198.362 187.966 L 166.885 187.966 L 166.885 187.971 Z" style="fill:#ffffff;fill-opacity:1"/>
    <path id="_x33_187_1_" d="M 258.231 187.971 C 255.21 187.971 248.742 192.716 248.742 195.729 L 248.742 200.476 C 248.742 203.495 255.21 208.237 258.231 208.237 L 277.204 208.237 C 278.929 208.237 280.654 209.964 280.654 211.255 C 280.654 212.978 278.927 214.702 277.204 214.702 L 248.742 214.702 L 248.742 222.461 L 280.652 222.461 C 283.672 222.461 289.708 217.72 289.708 214.702 L 289.708 209.96 C 289.708 206.508 283.672 201.765 280.652 201.765 L 261.678 201.765 C 259.953 201.765 258.23 200.472 258.23 198.743 C 258.23 197.018 259.955 195.722 261.678 195.722 L 289.708 195.722 L 289.708 187.966 L 258.231 187.966 L 258.231 187.971 L 258.231 187.971 Z" style="fill:#ffffff;fill-opacity:1"/>
    <path d="M 201.813 187.971 L 201.813 203.501 C 201.813 206.517 206.554 211.26 209.574 211.26 L 217.332 211.26 L 217.332 222.468 L 228.545 222.468 L 228.545 211.26 L 236.306 211.26 C 239.322 211.26 244.067 206.517 244.067 203.501 L 244.067 187.971 L 233.286 187.971 L 233.286 200.481 C 233.286 201.772 231.561 203.501 229.836 203.501 L 216.039 203.501 C 214.312 203.501 212.588 201.774 212.588 200.481 L 212.588 187.971 L 201.813 187.971 Z" id="path48" style="fill:#ffffff;fill-opacity:1"/>
  </g>
</svg>
